source/img/svg/features4-icon.svg

<svg width="64" height="64" viewBox="0 0 64 64" fill="none" xmlns="http://www.w3.org/2000/svg">
<path d="M4 41.1597L7.40525 41.1597L8.95608 41.1597C10.5422 41.1597 19.1734 51.7206 30.9415 54.6947L46.4807 51.4721C49.6356 50.4099 48.6834 47.6049 46.4807 47.2827C44.278 46.9604 39.576 47.1479 36.4112 47.2827" stroke="#6DAD45" stroke-width="2" stroke-linecap="round"/>
<path d="M23.1514 39.3654L33.0702 46.5708C34.4749 47.7932 36.2311 48.0978 37.3552 46.5708C39.8964 43.1193 22.6113 30.1435 20.3758 28.4398C16.0677 25.1564 8.99602 28.4397 8.99602 28.4397L4 28.4397" stroke="#6DAD45" stroke-width="2" stroke-linecap="round"/>
<path d="M41.6188 19.8331C44.0638 19.8331 46.0505 17.6283 46.0505 14.9165C46.0505 12.2052 44.0638 10 41.6188 10C39.1742 10 37.1875 12.2052 37.1875 14.917C37.1875 17.6283 39.1742 19.8331 41.6188 19.8331V19.8331Z" stroke="#6DAD45" stroke-width="2" stroke-linecap="round" stroke-linejoin="round"/>
<path d="M50.5027 19.8331C52.9429 19.8331 54.9333 17.6283 54.9333 14.9165C54.9333 12.2052 52.9442 10 50.5027 10C48.0585 10 46.0703 12.2052 46.0703 14.917C46.0703 17.6283 48.0585 19.8331 50.5027 19.8331Z" stroke="#6DAD45" stroke-width="2" stroke-linecap="round" stroke-linejoin="round"/>
<path d="M56.7443 18.5335C54.9427 18.2207 53.1658 19.618 52.6968 21.7165C52.2262 23.8132 53.2684 25.6987 55.0704 26.0105C56.8698 26.3219 58.6489 24.9246 59.1191 22.8279C59.5885 20.7308 58.5438 18.8443 56.7443 18.5335Z" stroke="#6DAD45" stroke-width="2" stroke-linecap="round" stroke-linejoin="round"/>
<path d="M38.9863 20.5045C38.5161 18.4056 36.7391 17.0083 34.9376 17.321C33.139 17.6319 32.0934 19.5173 32.5636 21.6158C33.0325 23.7124 34.8121 25.1096 36.6115 24.7978C38.4131 24.486 39.4553 22.6006 38.9863 20.5045V20.5045Z" stroke="#6DAD45" stroke-width="2" stroke-linecap="round" stroke-linejoin="round"/>
<path d="M51.8538 24.1928C51.3948 21.2898 48.931 19.0645 45.9694 19.0645C45.9647 19.0645 45.9603 19.0648 45.956 19.0648C45.9516 19.0648 45.9473 19.0645 45.9429 19.0645C42.9813 19.0645 40.5175 21.2898 40.0585 24.1928C37.9504 25.1356 36.4727 27.2902 36.4727 29.7925C36.4727 33.1591 39.1469 35.8986 42.4344 35.8986C42.4395 35.8986 42.4442 35.8982 42.4489 35.8982C42.4529 35.8982 42.4569 35.8986 42.4609 35.8986C43.7659 35.8986 44.974 35.4662 45.956 34.7339C46.938 35.4658 48.1461 35.8986 49.4507 35.8986C49.4551 35.8986 49.459 35.8982 49.463 35.8982C49.4681 35.8982 49.4728 35.8986 49.4776 35.8986C52.7651 35.8986 55.4393 33.1591 55.4393 29.7925C55.4396 27.2899 53.9616 25.1356 51.8538 24.1928Z" stroke="#6DAD45" stroke-width="2" stroke-linecap="round" stroke-linejoin="round"/>
</svg>

<svg width="64" height="64" fill="none" xmlns="http://www.w3.org/2000/svg"><path d="M4 41.16h4.956c1.586 0 10.217 10.56 21.986 13.535l15.539-3.223c3.155-1.062 2.202-3.867 0-4.19-2.203-.322-6.905-.134-10.07 0" stroke="#6DAD45" stroke-width="2" stroke-linecap="round"/><path d="M23.151 39.365l9.92 7.206c1.404 1.222 3.16 1.527 4.284 0 2.541-3.452-14.744-16.427-16.98-18.131-4.307-3.284-11.379 0-11.379 0H4" stroke="#6DAD45" stroke-width="2" stroke-linecap="round"/><path d="M41.619 19.833c2.445 0 4.431-2.205 4.431-4.916 0-2.712-1.986-4.917-4.431-4.917-2.445 0-4.431 2.205-4.431 4.917 0 2.711 1.986 4.916 4.43 4.916v0zm8.884 0c2.44 0 4.43-2.205 4.43-4.916 0-2.712-1.989-4.917-4.43-4.917-2.444 0-4.433 2.205-4.433 4.917 0 2.711 1.989 4.916 4.433 4.916zm6.241-1.299c-1.801-.313-3.578 1.084-4.047 3.183-.47 2.096.571 3.982 2.373 4.294 1.8.31 3.579-1.086 4.05-3.183.469-2.097-.576-3.984-2.376-4.294z" stroke="#6DAD45" stroke-width="2" stroke-linecap="round" stroke-linejoin="round"/><path d="M38.986 20.505c-.47-2.1-2.247-3.497-4.048-3.184-1.799.31-2.845 2.196-2.374 4.295.468 2.096 2.248 3.494 4.047 3.182 1.802-.312 2.844-2.197 2.375-4.293v0zm12.868 3.688c-.46-2.903-2.923-5.129-5.885-5.129h-.026c-2.962 0-5.425 2.226-5.884 5.129-2.109.943-3.586 3.097-3.586 5.6 0 3.366 2.674 6.106 5.961 6.106h.027a5.826 5.826 0 0 0 3.495-1.165 5.828 5.828 0 0 0 3.495 1.165h.027c3.287 0 5.961-2.74 5.961-6.107 0-2.502-1.477-4.656-3.585-5.6z" stroke="#6DAD45" stroke-width="2" stroke-linecap="round" stroke-linejoin="round"/></svg>
